X: 70
T: Si nian
%%abc-version 2.0
%%abcx-abcm2ps-target-version 5.9.1 (29 Sep 2008)
%%abc-creator hum2abc beta
%%abcx-conversion-date 2013/10/02 07:44:27
%%abc-edited-by Helmut Schaffrath
%%humdrum-veritas 3383079513
%%humdrum-veritas-data 3334322193
%%continueall 1
%%barnumbers 0
L: 1/16
M: 2/4
K: F
d2 c A c d f2 [I:setbarnb 1]| 
c6d f | 
d2 c A c d f2 | 
c8 | 
c2 d c2< f2 d | 
c d f2 d c A2 | 
A G F2 G A d c | 
F8 |]  



